X:1
T:Title
%%score { ( 1 3 5 ) | ( 2 4 6 ) }
L:1/8
M:4/4
K:A
V:1 treble nm="Grand Piano"
V:3 treble 
V:5 treble 
V:2 treble 
V:4 treble 
V:6 treble 
V:1
 z4 z[Q:1/4=100] ABc | [Fd]2 [FA]2 [^EG]2 [FA]2 | [FB]2 F2- FF^EF | A4 A4 | %4
[M:5/8] [C=GA]-[CGA]- [CGA]3 |[M:3/8] ABd |[M:4/4] c2 B2 c2 B2 | B2 E2- EE=GA | B4 B4 | %9
[M:5/8] [DFA]-[DFA]- [DFA]3 |[M:3/8] ABc |[M:4/4] [Fd]2 [FA]2 [^EG]2 [FA]2 | [FB]2 F2- FF^EF | %13
 =G2 A2 B2 c2 |[M:5/8] d-d- d3 |[M:3/8] ddd |[M:4/4] d4 d4 | d2 A2- AAGA | B4 c4 | %19
[M:5/8] [Fd]-[Fd]- [Fd]3 |[M:3/8] [Fd][Fc][FB] |[M:4/4] [C=G]2 [CG]2 G2 G2 | %22
 =G2 [CG]2- [CG][Gd][Gc][GB] | F4 F4 |[M:5/8] [A,DF]-[A,DF]- [A,DF]3 |[M:3/8] AGA | %26
[M:4/4] E2 F2 =G2 A2 | B2 B2- BB[^DAB][DAB] | e2- [Ge]2 e2- [Ge]2 | %29
[M:11/16] e-<e-[DGe-][Ge-][C=Ge]3/2 |[M:3/8] e^de |[M:4/4] f2 e2 d2 B2 | [FA]2 F2- FDFA | %33
 d2 D2 F2 A2 |[M:5/8] d-d- d3 |[M:3/8] ddd |[M:4/4] d4 d4 | d2 A2- AAGA | %38
[M:5/4] [EGB]2 [EGd]2 [E=Gc]3 [CGe]3 |[M:5/8] [DFd]-[DFd]- [DFd]3 |] %40
V:2
 z4 z A,[A,G][A,=G] | [D,A,]2 [D,D]2 [D,D]2 [D,D]2 | %2
 [D,D]2 [D,A,D]2- [D,A,D][D,A,D][D,G,D][D,A,D] | D,2 z[K:treble] B[K:bass] ^D,2 z[K:treble] B | %4
[M:5/8][K:bass] E,-E,- E,3 |[M:3/8][K:treble] [A,C=G][A,CG][A,EG] | %6
[M:4/4] [A,E=G]2 [A,DG]2 [A,EG]2 [A,DG]2 | [A,C=G]2 [A,C]2- [A,C][A,C][A,CE][A,CG] | %8
 [A,C=G]2[K:bass] z[K:treble] c A,2[K:bass] z c |[M:5/8] D,-D,- D,3 | %10
[M:3/8] A,[K:treble][A,G][A,=G] |[M:4/4][K:bass] [D,A,]2 [D,D]2 [D,D]2 [D,D]2 | %12
 [D,D]2 [D,A,D]2- [D,A,D][D,A,D][D,G,D][D,A,D] | [E,A,C]2 [F,A,D]2[K:treble] [=G,D]2 [A,D]2 | %14
[M:5/8] [B,DF]-[B,DF]- [B,DF]3 |[M:3/8] [B,DF][B,DF][B,DF] | %16
[M:4/4] [^A,D^E]2 [A,D]2 [A,DE]2 [A,D]2 | [A,DF]2 [A,DF]2- [A,DF][K:bass]A,G,A, | %18
 [E,E]2 [E,E]2[K:treble] [A,E=G]2 [A,C]2 |[M:5/8][K:bass] [D,D]-[D,D]- [D,D]3 | %20
[M:3/8] [D,A,][D,A,][D,A,] |[M:4/4] [E,A,]2 [A,,A,]2 [C,A,C]2 [E,A,C]2 | %22
 [A,C]2 [A,,A,]2- [A,,A,][A,,A,][A,,A,][C,A,] | [A,D]2 A,2 [A,D]2 z F |[M:5/8] D,2 A,,2 D, | %25
[M:3/8] [F,A,D][^E,B,D][F,A,D] |[M:4/4] [=G,A,C]2 [F,A,D]2 [E,A,C]2 [F,A,D]2 | %27
 [=G,D]2 [G,D=G]2- [G,DG][G,DG][K:bass]F,F, | z2[K:treble] z e[K:bass] z2 z[K:treble] e | %29
[M:11/16][K:bass] C,-<C, z DA,,3/2 |[M:3/8][K:treble] [A,C=G][A,=CF][A,^CG] | %31
[M:4/4] [DA]2 [A,C=G]2 [B,DF]2 [=G,DG]2 | [D,D]2 [D,A,D]2- [D,A,D]D,F,A, | D2 D,2 F,2 A,2 | %34
[M:5/8][K:treble] [B,DF]-[B,DF]- [B,DF]3 |[M:3/8] [B,DF][B,DF][B,DF] | %36
[M:4/4] [B,D^E]2 [B,D]2 [B,DE]2 [B,D]2 | [A,DF]2 [A,DF]2- [A,DF][K:bass]A,G,A, | %38
[M:5/4] E,2 E,2 A,3 A,,3 |[M:5/8] D,-D,- D,3 |] %40
V:3
 x8 | x8 | x8 | [DF]2 [DF]2 [=CF]2 [CF]2 |[M:5/8] x5 |[M:3/8] x3 |[M:4/4] x8 | x8 | %8
 z2 [E=G]2 [CG]2 [EG]2 |[M:5/8] x5 |[M:3/8] x3 |[M:4/4] x8 | x8 | x8 |[M:5/8] x5 |[M:3/8] x3 | %16
[M:4/4] z2 z ^A z2 z A | x8 | G2 z d z2 z A |[M:5/8] x5 |[M:3/8] x3 |[M:4/4] x8 | x8 | %23
 z2 z F z2 D2 |[M:5/8] x5 |[M:3/8] x3 |[M:4/4] x8 | x8 | [EG]2 z2 [EG]2 z2 | %29
[M:11/16] [EA]-<[EA] z/ z/ z/ z/ z/ z |[M:3/8] x3 |[M:4/4] x8 | x8 | x8 |[M:5/8] x5 |[M:3/8] x3 | %36
[M:4/4] z2 z ^A z2 z A | x8 |[M:5/4] x10 |[M:5/8] x5 |] %40
V:4
 x8 | x8 | x8 | z2 D,2[K:treble][K:bass] z2 ^D,2[K:treble] |[M:5/8][K:bass] x5 | %5
[M:3/8][K:treble] x3 |[M:4/4] x8 | x8 | z2[K:bass] A,,2[K:treble] z2[K:bass] A,,2 |[M:5/8] x5 | %10
[M:3/8] x[K:treble] x2 |[M:4/4][K:bass] x8 | x8 | x4[K:treble] x4 |[M:5/8] x5 |[M:3/8] x3 | %16
[M:4/4] x8 | x5[K:bass] x3 | x4[K:treble] x4 |[M:5/8][K:bass] x5 |[M:3/8] x3 |[M:4/4] x8 | x8 | %23
 z4 z2 A,2 |[M:5/8] x5 |[M:3/8] x3 |[M:4/4] x8 | x6[K:bass] x2 | %28
 z2[K:treble] E2[K:bass] z2 E2[K:treble] |[M:11/16][K:bass] z/ z/ z B,,-<B,, z/ z | %30
[M:3/8][K:treble] x3 |[M:4/4] x8 | x8 | x8 |[M:5/8][K:treble] x5 |[M:3/8] x3 |[M:4/4] x8 | %37
 x5[K:bass] x3 |[M:5/4] x10 |[M:5/8] x5 |] %40
V:5
 x8 | x8 | x8 | x8 |[M:5/8] x5 |[M:3/8] x3 |[M:4/4] x8 | x8 | x8 |[M:5/8] x5 |[M:3/8] x3 | %11
[M:4/4] x8 | x8 | x8 |[M:5/8] x5 |[M:3/8] x3 |[M:4/4] z2 ^E2 z2 E2 | x8 | z2 G2 z2 =G2 | %19
[M:5/8] x5 |[M:3/8] x3 |[M:4/4] x8 | x8 | z2 D2 z4 |[M:5/8] x5 |[M:3/8] x3 |[M:4/4] x8 | x8 | x8 | %29
[M:11/16] x11/2 |[M:3/8] x3 |[M:4/4] x8 | x8 | x8 |[M:5/8] x5 |[M:3/8] x3 |[M:4/4] z2 ^E2 z2 E2 | %37
 x8 |[M:5/4] x10 |[M:5/8] x5 |] %40
V:6
 x8 | x8 | x8 | x3[K:treble] x[K:bass] x3[K:treble] x |[M:5/8][K:bass] x5 |[M:3/8][K:treble] x3 | %6
[M:4/4] x8 | x8 | x2[K:bass] x[K:treble] x3[K:bass] x2 |[M:5/8] x5 |[M:3/8] x[K:treble] x2 | %11
[M:4/4][K:bass] x8 | x8 | x4[K:treble] x4 |[M:5/8] x5 |[M:3/8] x3 |[M:4/4] x8 | x5[K:bass] x3 | %18
 x4[K:treble] x4 |[M:5/8][K:bass] x5 |[M:3/8] x3 |[M:4/4] x8 | x8 | D,4 D,4 |[M:5/8] x5 | %25
[M:3/8] x3 |[M:4/4] x8 | x6[K:bass] x2 | E,4[K:treble][K:bass] D,4[K:treble] | %29
[M:11/16][K:bass] x11/2 |[M:3/8][K:treble] x3 |[M:4/4] x8 | x8 | x8 |[M:5/8][K:treble] x5 | %35
[M:3/8] x3 |[M:4/4] x8 | x5[K:bass] x3 |[M:5/4] x10 |[M:5/8] x5 |] %40

